; generated by PrusaSlicer 2.6.1+win64 on 2023-10-28 at 02:45:28 UTC

; 

; external perimeters extrusion width = 0.61mm
; perimeters extrusion width = 0.65mm
; infill extrusion width = 0.70mm
; solid infill extrusion width = 0.65mm
; top infill extrusion width = 0.60mm
; support material extrusion width = 0.55mm
; first layer extrusion width = 0.65mm

M73 P0 R22
M201 X9000 Y9000 Z500 E10000 ; sets maximum accelerations, mm/sec^2
M203 X500 Y500 Z12 E120 ; sets maximum feedrates, mm / sec
M204 S2000 T1500 ; sets acceleration (S) and retract acceleration (R), mm/sec^2
M205 X10.00 Y10.00 Z0.20 E4.50 ; sets the jerk limits, mm/sec
M205 S0 T0 ; sets the minimum extruding and travel feed rate, mm/sec
;TYPE:Custom
M862.3 P "MK2.5S" ; printer model check
M862.1 P0.6 ; nozzle diameter check
M115 U3.11.0 ; tell printer latest fw version
G90 ; use absolute coordinates
M83 ; extruder relative mode
M104 S230 ; set extruder temp
M140 S85 ; set bed temp
M190 S85 ; wait for bed temp
M109 S230 ; wait for extruder temp
G28 W ; home all without mesh bed level
G80 ; mesh bed leveling

G1 Z0.2 F720
G1 Y-3 F1000 ; go outside print area
G92 E0
G1 X60 E9 F1000 ; intro line
G1 X100 E12.5 F1000 ; intro line

G92 E0
G21 ; set units to millimeters
G90 ; use absolute coordinates
M83 ; use relative distances for extrusion
M900 K0.04 ; Filament gcode LA 1.5
M900 K24 ; Filament gcode LA 1.0
M107
;LAYER_CHANGE
;Z:0.2
;HEIGHT:0.2
;BEFORE_LAYER_CHANGE
G92 E0.0
;0.2


G1 E-1 F2100
G1 Z.2 F720
;AFTER_LAYER_CHANGE
;0.2
G1 Z.4
G1 X103.285 Y89.625 F10800
G1 Z.2 F720
G1 E1 F1500
M204 S800
;TYPE:Skirt/Brim
;WIDTH:0.65
G1 F1200
G1 X104.344 Y88.663 E.07222
G1 X105.5 Y88.393 E.05992
G1 X144.5 Y88.393 E1.96868
G1 X145.875 Y88.785 E.07217
G1 X146.837 Y89.844 E.07222
G1 X147.107 Y91 E.05992
G1 X147.107 Y119 E1.41341
G1 X146.715 Y120.375 E.07217
G1 X145.656 Y121.337 E.07222
G1 X144.5 Y121.607 E.05992
G1 X105.5 Y121.607 E1.96868
G1 X104.125 Y121.215 E.07217
G1 X103.163 Y120.156 E.07222
G1 X102.893 Y119 E.05992
G1 X102.893 Y91 E1.41341
G1 X103.261 Y89.711 E.06767
M204 S1000
; printing object extruder_bowden_top_cover.STL id:0 copy 0
;WIPE_START
M73 P1 R22
G1 F8640
G1 X104.344 Y88.663 E-.34798
G1 X105.5 Y88.393 E-.27411
G1 X107.137 Y88.393 E-.37791
;WIPE_END
G1 Z.4 F720
G1 X140.385 Y115.332 F10800
G1 Z.2 F720
G1 E1 F1500
M204 S800
;TYPE:Perimeter
;WIDTH:0.649999
G1 F1200
G1 X140.589 Y115.314 E.01034
G1 X141.07 Y115.169 E.02536
G1 X141.665 Y114.78 E.03588
G1 X142.153 Y114.107 E.04196
G1 X142.154 Y116.654 E.12857
G1 X107.846 Y116.654 E1.73183
G1 X107.846 Y112.086 E.23059
G1 X108.012 Y112.278 E.01281
G1 X108.696 Y112.615 E.03849
G1 X108.896 Y112.666 E.01042
G1 X109.024 Y112.828 E.01042
G1 X109.495 Y113.246 E.03179
G1 X109.985 Y113.482 E.02745
G1 X110.654 Y113.59 E.03421
G1 X112.089 Y113.59 E.07244
G1 X112.457 Y113.558 E.01865
G1 X113.028 Y113.371 E.03033
G1 X113.413 Y113.127 E.02301
G1 X113.819 Y112.697 E.02985
G1 X116.441 Y112.697 E.13236
G1 X116.809 Y112.665 E.01865
G1 X117.204 Y112.555 E.0207
G1 X117.54 Y112.391 E.01887
G1 X117.828 Y112.182 E.01796
G1 X118.064 Y111.943 E.01695
G1 X118.314 Y111.576 E.02242
G1 X118.516 Y111.029 E.02943
G1 X118.566 Y110.572 E.02321
G1 X118.566 Y109.624 E.04785
G1 X118.76 Y110.03 E.02271
G1 X119.126 Y110.593 E.0339
G1 X119.485 Y111.014 E.02793
G1 X120.009 Y111.467 E.03496
G1 X120.566 Y111.799 E.03273
G1 X120.971 Y111.979 E.02237
G1 X121.832 Y112.21 E.045
G1 X122.5 Y112.269 E.03385
G1 X123.168 Y112.21 E.03385
G1 X123.707 Y112.081 E.02798
G1 X124.346 Y111.835 E.03456
G1 X124.821 Y111.576 E.02731
G1 X125.514 Y111.015 E.04501
G1 X126.075 Y110.323 E.04497
G1 X126.479 Y109.529 E.04497
;WIDTH:0.69552
G1 X126.554 Y109.354 E.01033
;WIDTH:0.74104
G1 X126.629 Y109.179 E.01105
;WIDTH:0.78656
G1 X126.704 Y109.004 E.01177
;WIDTH:0.83208
G1 X126.779 Y108.829 E.01249
G1 X126.794 Y108.677 E.01002
;WIDTH:0.819567
G1 X126.838 Y108 E.04381
G1 X126.794 Y107.323 E.04381
G1 X126.716 Y107.11 E.01465
;WIDTH:0.777175
G1 X126.637 Y106.897 E.01387
;WIDTH:0.734783
G1 X126.558 Y106.684 E.01307
;WIDTH:0.692391
G1 X126.479 Y106.471 E.01227
;WIDTH:0.649999
G1 X126.075 Y105.677 E.04497
G1 X125.514 Y104.985 E.04497
G1 X124.835 Y104.435 E.04411
G1 X124.435 Y104.202 E.02337
G1 X123.826 Y103.943 E.03341
G1 X123.166 Y103.79 E.0342
G1 X122.613 Y103.746 E.028
G1 X121.943 Y103.781 E.03387
G1 X121.398 Y103.882 E.02798
G1 X120.641 Y104.16 E.04071
G1 X120.177 Y104.425 E.02697
G1 X119.737 Y104.763 E.02801
G1 X119.263 Y105.238 E.03387
;WIDTH:0.694173
G1 X119.131 Y105.374 E.01026
;WIDTH:0.738346
G1 X118.999 Y105.509 E.01092
;WIDTH:0.782519
G1 X118.868 Y105.645 E.01161
G1 X118.721 Y105.909 E.01858
;WIDTH:0.793297
G1 X118.479 Y106.372 E.0326
;WIDTH:0.819269
G1 X118.384 Y106.62 E.01714
;WIDTH:0.845241
G1 X118.289 Y106.868 E.01772
G1 X118.187 Y107.372 E.03431
G1 X117.83 Y107.005 E.03416
G1 X117.338 Y106.671 E.03967
G1 X117.586 Y106.417 E.02368
G1 X117.694 Y106.236 E.01406
;WIDTH:0.819269
G1 X117.803 Y106.054 E.01369
;WIDTH:0.793297
G1 X118.208 Y105.314 E.05263
;WIDTH:0.782519
G1 X118.249 Y105.107 E.01298
;WIDTH:0.738346
G1 X118.291 Y104.901 E.01216
;WIDTH:0.694173
G1 X118.333 Y104.695 E.01138
;WIDTH:0.649999
G1 X118.5 Y103.945 E.03879
G1 X118.566 Y103.012 E.04721
G1 X118.566 Y99.626 E.17092
G1 X118.704 Y99.935 E.01708
G1 X119.189 Y100.682 E.04496
G1 X119.571 Y101.084 E.02799
G1 X120.092 Y101.506 E.03384
G1 X120.513 Y101.772 E.02514
G1 X120.974 Y101.978 E.02549
G1 X121.396 Y102.115 E.0224
G1 X122.002 Y102.237 E.0312
G1 X122.574 Y102.255 E.02889
G1 X123.166 Y102.208 E.02998
G1 X123.826 Y102.055 E.0342
G1 X124.436 Y101.796 E.03345
G1 X124.908 Y101.506 E.02796
G1 X125.429 Y101.084 E.03384
G1 X125.811 Y100.682 E.02799
G1 X126.296 Y99.935 E.04496
;WIDTH:0.665532
G1 X126.623 Y99.105 E.04618
;WIDTH:0.715488
G1 X126.683 Y98.939 E.00987
;WIDTH:0.765443
G1 X126.744 Y98.772 E.01068
;WIDTH:0.815398
G1 X126.804 Y98.605 E.0114
G1 X126.828 Y97.776 E.05327
;WIDTH:0.840483
G1 X126.775 Y97.202 E.03823
G1 X126.708 Y97.046 E.01126
;WIDTH:0.792862
G1 X126.642 Y96.89 E.01056
;WIDTH:0.745241
G1 X126.575 Y96.735 E.00986
;WIDTH:0.69762
G1 X126.509 Y96.579 E.00922
;WIDTH:0.649999
G1 X126.297 Y96.066 E.02802
G1 X126.073 Y95.679 E.02257
G1 X125.512 Y94.987 E.04497
G1 X124.82 Y94.426 E.04497
G1 X124.026 Y94.022 E.04497
G1 X123.602 Y93.894 E.02236
;WIDTH:0.630408
G1 X123.38 Y93.862 E.01096
;WIDTH:0.601005
G1 X123.158 Y93.83 E.01041
;WIDTH:0.571602
G1 X122.616 Y93.799 E.02387
;WIDTH:0.581195
G1 X121.693 Y93.846 E.04136
;WIDTH:0.615597
G1 X121.333 Y93.934 E.01765
;WIDTH:0.649999
G1 X120.972 Y94.023 E.01877
G1 X120.179 Y94.427 E.04493
G1 X119.487 Y94.988 E.04497
G1 X118.926 Y95.68 E.04497
G1 X118.668 Y96.146 E.02689
G1 X118.45 Y96.659 E.02814
G1 X118.292 Y97.334 E.03499
G1 X118.245 Y97.776 E.02244
G1 X118.25 Y98.321 E.02751
G1 X118.2 Y98.238 E.00489
G1 X117.749 Y97.756 E.03332
G1 X117.273 Y97.475 E.0279
G1 X116.848 Y97.345 E.02243
G1 X116.441 Y97.306 E.02064
G1 X109.279 Y97.306 E.36153
G1 X108.684 Y97.391 E.03034
G1 X108.004 Y97.731 E.03838
G1 X107.846 Y97.914 E.0122
G1 X107.846 Y93.346 E.23059
G1 X120.337 Y93.346 E.63053
G1 X121.313 Y93.331 E.04927
;WIDTH:0.619798
G1 X121.622 Y93.317 E.01484
;WIDTH:0.592428
G1 X121.932 Y93.304 E.01418
;WIDTH:0.565057
G1 X122.724 Y93.294 E.03439
;WIDTH:0.588161
G1 X123.192 Y93.315 E.02124
;WIDTH:0.630408
G1 X123.66 Y93.336 E.02288
;WIDTH:0.649999
G1 X127.654 Y93.346 E.20161
G1 X127.654 Y96.428 E.15558
;WIDTH:0.69762
G1 X127.63 Y96.596 E.00924
;WIDTH:0.745241
G1 X127.606 Y96.764 E.00991
;WIDTH:0.792862
G1 X127.582 Y96.931 E.01052
;WIDTH:0.840483
G1 X127.559 Y97.099 E.01125
G1 X127.581 Y97.776 E.04492
;WIDTH:0.815398
G1 X127.571 Y98.672 E.05756
G1 X127.596 Y98.852 E.01167
;WIDTH:0.765443
G1 X127.621 Y99.033 E.01098
;WIDTH:0.715488
G1 X127.646 Y99.213 E.01016
;WIDTH:0.665532
G1 X127.654 Y99.776 E.02915
;WIDTH:0.649999
G1 X127.654 Y105.702 E.29914
;WIDTH:0.663514
G1 X127.647 Y106.734 E.05326
;WIDTH:0.702528
G1 X127.628 Y106.871 E.00759
;WIDTH:0.741541
G1 X127.608 Y107.008 E.00804
;WIDTH:0.780554
G1 X127.588 Y107.145 E.00849
;WIDTH:0.819567
G1 X127.569 Y107.283 E.009
G1 X127.581 Y107.731 E.02894
;WIDTH:0.796078
G1 X127.581 Y108.269 E.03369
;WIDTH:0.83208
G1 X127.563 Y108.897 E.04123
G1 X127.585 Y109.101 E.01346
;WIDTH:0.78656
G1 X127.608 Y109.306 E.01276
;WIDTH:0.74104
G1 X127.631 Y109.51 E.01192
;WIDTH:0.69552
G1 X127.654 Y109.715 E.01119
;WIDTH:0.649999
G1 X127.666 Y113.453 E.18869
G1 X127.804 Y114.007 E.02882
G1 X127.997 Y114.379 E.02115
G1 X128.295 Y114.742 E.02371
G1 X128.705 Y115.055 E.02604
G1 X129.212 Y115.269 E.02778
G1 X129.779 Y115.346 E.02888
G1 X140.295 Y115.34 E.53084
M204 S1000
G1 X140.33 Y114.73 F10800
M204 S800
G1 F1200
G1 X140.484 Y114.716 E.00781
G1 X140.828 Y114.613 E.01813
G1 X141.253 Y114.335 E.02564
;WIDTH:0.694534
G1 X141.368 Y114.168 E.01099
;WIDTH:0.739069
G1 X141.482 Y114.002 E.01166
;WIDTH:0.783603
G1 X141.597 Y113.836 E.01244
;WIDTH:0.828138
G1 X141.711 Y113.669 E.0132
;WIDTH:0.872672
G1 X141.826 Y113.503 E.01393
G1 X141.843 Y113.221 E.01949
;WIDTH:0.857302
G1 X141.843 Y92.843 E1.37992
G1 X142.657 Y92.843 E.05512
G1 X142.657 Y93.25 E.02756
G1 X142.657 Y113.221 E1.35236
;WIDTH:0.872672
G1 X142.65 Y113.575 E.02443
G1 X142.672 Y113.681 E.00747
;WIDTH:0.828138
G1 X142.694 Y113.788 E.00713
;WIDTH:0.783603
G1 X142.716 Y113.894 E.00667
;WIDTH:0.739069
G1 X142.739 Y114.001 E.00634
;WIDTH:0.694534
G1 X142.761 Y114.107 E.00587
;WIDTH:0.649999
G1 X142.761 Y117.261 E.15921
G1 X107.239 Y117.261 E1.79311
G1 X107.239 Y111.467 E.29247
;WIDTH:0.649678
M73 P2 R22
G1 X107.218 Y110.572 E.04517
;WIDTH:0.607302
G1 X107.218 Y108.856 E.08053
;WIDTH:0.649999
G1 X107.239 Y107.359 E.07557
;WIDTH:0.650756
G1 X107.238 Y106.143 E.06146
;WIDTH:0.647333
G1 X107.221 Y105.463 E.03419
;WIDTH:0.613083
G1 X107.218 Y104.139 E.06277
;WIDTH:0.649999
G1 X107.239 Y103.43 E.03581
G1 X107.235 Y101.99 E.07269
;WIDTH:0.640773
G1 X107.218 Y101.274 E.0356
;WIDTH:0.607302
G1 X107.218 Y99.431 E.08649
;WIDTH:0.649999
G1 X107.239 Y98.541 E.04494
G1 X107.239 Y92.739 E.29288
G1 X128.261 Y92.739 E1.06117
G1 X128.27 Y113.387 E1.04229
G1 X128.368 Y113.783 E.02059
G1 X128.506 Y114.049 E.01513
G1 X128.719 Y114.308 E.01693
G1 X129.011 Y114.531 E.01855
G1 X129.374 Y114.684 E.01988
G1 X129.779 Y114.739 E.02063
G1 X140.241 Y114.737 E.52811
M204 S1000
G1 X140.331 Y114.109 F10800
M204 S800
G1 F1200
G1 X140.585 Y114.056 E.0131
G1 X140.84 Y113.889 E.01539
G1 X141.049 Y113.601 E.01796
G1 X141.132 Y113.221 E.01963
G1 X141.132 Y92.132 E1.06455
G1 X143.368 Y92.132 E.11287
G1 X143.368 Y117.868 E1.29912
G1 X106.632 Y117.868 E1.85439
M73 P2 R21
G1 X106.632 Y92.132 E1.29912
G1 X128.868 Y92.132 E1.12245
G1 X128.868 Y112.571 E1.03174
G1 X128.887 Y113.406 E.04216
G1 X129.015 Y113.718 E.01702
G1 X129.318 Y114.007 E.02114
G1 X129.536 Y114.099 E.01194
G1 X129.779 Y114.132 E.01238
M73 P3 R21
G1 X140.242 Y114.128 E.52816
M204 S1000
G1 X140.221 Y113.525 F10800
M204 S800
;TYPE:External perimeter
G1 F1200
G1 X140.343 Y113.5 E.00629
G1 X140.497 Y113.348 E.01092
G1 X140.525 Y113.221 E.00656
G1 X140.525 Y91.525 E1.09519
G1 X143.975 Y91.525 E.17415
G1 X143.975 Y118.475 E1.3604
G1 X106.025 Y118.475 E1.91567
G1 X106.025 Y91.525 E1.3604
G1 X129.475 Y91.525 E1.18373
G1 X129.475 Y112.571 E1.06238
G1 X129.497 Y113.334 E.03853
G1 X129.625 Y113.483 E.00992
G1 X129.779 Y113.525 E.00806
G1 X140.131 Y113.525 E.52256
M204 S1000
G1 X140.297 Y113.623 F10800
;WIPE_START
G1 F8640
G1 X140.343 Y113.5 E-.04929
G1 X140.497 Y113.348 E-.04996
G1 X140.525 Y113.221 E-.03003
G1 X140.525 Y109.45 E-.87072
;WIPE_END
G1 Z.4 F720
G1 X121.354 Y101.455 F10800
G1 Z.2 F720
G1 E1 F1500
M204 S800
;TYPE:Perimeter
G1 F1200
G1 X120.812 Y101.241 E.02941
G1 X120.474 Y101.034 E.02001
G1 X119.953 Y100.612 E.03384
G1 X119.68 Y100.325 E.01999
G1 X119.259 Y99.688 E.03854
;WIDTH:0.68777
G1 X119.189 Y99.579 E.00695
;WIDTH:0.725541
G1 X119.12 Y99.469 E.00737
;WIDTH:0.763312
G1 X119.051 Y99.359 E.00778
;WIDTH:0.801083
G1 X118.982 Y99.249 E.00819
;WIDTH:0.838723
G1 X118.925 Y99.125 E.00903
;WIDTH:0.876362
G1 X118.868 Y99.001 E.00946
;WIDTH:0.891634
G1 X118.767 Y98.565 E.03158
G1 X118.784 Y98.496 E.00502
;WIDTH:0.843307
G1 X118.801 Y98.428 E.00466
;WIDTH:0.79498
G1 X118.818 Y98.36 E.00438
;WIDTH:0.746653
G1 X118.835 Y98.292 E.0041
;WIDTH:0.698326
G1 X118.852 Y98.224 E.00382
;WIDTH:0.649999
G1 X118.861 Y97.608 E.0311
G1 X118.978 Y97.023 E.03011
G1 X119.223 Y96.393 E.03412
G1 X119.417 Y96.037 E.02047
G1 X119.893 Y95.439 E.03858
G1 X120.482 Y94.953 E.03855
G1 X121.16 Y94.6 E.03859
G1 X121.792 Y94.41 E.03331
G1 X122.645 Y94.354 E.04315
G1 X123.04 Y94.385 E.02
G1 X123.779 Y94.577 E.03854
G1 X124.463 Y94.917 E.03856
G1 X125.061 Y95.393 E.03858
G1 X125.547 Y95.982 E.03855
G1 X125.771 Y96.37 E.02262
G1 X125.923 Y96.736 E.02001
G1 X126.096 Y97.384 E.03386
G1 X126.148 Y97.776 E.01996
G1 X126.125 Y98.486 E.03586
G1 X126.022 Y98.977 E.02532
G1 X125.741 Y99.688 E.03859
G1 X125.32 Y100.325 E.03854
G1 X125.047 Y100.612 E.01999
G1 X124.526 Y101.034 E.03384
G1 X124.188 Y101.241 E.02001
G1 X123.636 Y101.479 E.03034
G1 X123.04 Y101.615 E.03086
G1 X122.276 Y101.648 E.0386
G1 X121.523 Y101.522 E.03854
G1 X121.437 Y101.488 E.00467
M204 S1000
G1 X121.562 Y100.892 F10800
M204 S800
G1 F1200
G1 X121.059 Y100.687 E.02742
G1 X120.335 Y100.141 E.04577
G1 X119.908 Y99.606 E.03455
G1 X119.631 Y99.032 E.03217
G1 X119.479 Y98.413 E.03217
G1 X119.459 Y97.776 E.03217
G1 X119.572 Y97.149 E.03216
G1 X119.777 Y96.64 E.0277
G1 X119.908 Y96.394 E.01407
G1 X120.299 Y95.89 E.0322
G1 X120.786 Y95.479 E.03217
G1 X121.347 Y95.177 E.03216
G1 X121.897 Y95.008 E.02904
G1 X122.676 Y94.961 E.03939
G1 X123.351 Y95.072 E.03453
G1 X123.941 Y95.313 E.03217
G1 X124.468 Y95.672 E.03219
G1 X124.91 Y96.132 E.0322
G1 X125.245 Y96.673 E.03212
G1 X125.51 Y97.541 E.04581
G1 X125.541 Y98.224 E.03451
G1 X125.428 Y98.851 E.03216
G1 X125.187 Y99.441 E.03217
G1 X124.829 Y99.968 E.03216
G1 X124.144 Y100.563 E.0458
G1 X123.533 Y100.869 E.03449
G1 X122.914 Y101.021 E.03217
G1 X122.276 Y101.041 E.03222
G1 X121.646 Y100.926 E.03233
M204 S1000
G1 X121.423 Y100.183 F10800
M204 S800
;TYPE:External perimeter
G1 F1200
G1 X121.306 Y100.132 E.00644
G1 X120.717 Y99.669 E.03782
G1 X120.4 Y99.249 E.02656
G1 X120.186 Y98.785 E.02579
G1 X120.073 Y98.287 E.02578
G1 X120.066 Y97.776 E.0258
G1 X120.166 Y97.275 E.02579
G1 X120.368 Y96.806 E.02578
G1 X120.663 Y96.388 E.02583
G1 X121.038 Y96.042 E.02576
G1 X121.477 Y95.78 E.02581
G1 X121.961 Y95.616 E.0258
G1 X122.708 Y95.567 E.03779
G1 X123.225 Y95.666 E.02657
G1 X123.694 Y95.868 E.02578
G1 X124.112 Y96.163 E.02583
G1 X124.458 Y96.538 E.02576
G1 X124.719 Y96.977 E.02578
G1 X124.923 Y97.698 E.03782
G1 X124.934 Y98.224 E.02656
G1 X124.834 Y98.725 E.02579
G1 X124.632 Y99.194 E.02578
G1 X124.337 Y99.611 E.02578
G1 X123.762 Y100.091 E.03781
G1 X123.286 Y100.314 E.02653
G1 X122.787 Y100.427 E.02583
G1 X122.276 Y100.434 E.0258
G1 X121.775 Y100.334 E.02579
G1 X121.506 Y100.218 E.01479
M204 S1000
G1 X121.324 Y100.263 F10800
;WIPE_START
G1 F8640
G1 X121.306 Y100.132 E-.05027
G1 X120.717 Y99.669 E-.17299
G1 X120.4 Y99.249 E-.1215
G1 X120.186 Y98.785 E-.11798
G1 X120.073 Y98.287 E-.11791
G1 X120.066 Y97.776 E-.118
G1 X120.166 Y97.275 E-.11796
G1 X120.368 Y96.806 E-.11791
G1 X120.532 Y96.574 E-.06548
;WIPE_END
G1 Z.4 F720
G1 X122.623 Y111.65 F10800
G1 Z.2 F720
G1 E1 F1500
M204 S800
;TYPE:Perimeter
G1 F1200
G1 X122.5 Y111.662 E.00624
G1 X121.896 Y111.606 E.03062
G1 X121.159 Y111.402 E.0386
G1 X120.361 Y110.972 E.04576
G1 X119.892 Y110.563 E.03141
G1 X119.635 Y110.262 E.01998
G1 X119.269 Y109.699 E.0339
;WIDTH:0.695858
G1 X119.092 Y109.314 E.02301
;WIDTH:0.741716
G1 X118.916 Y108.929 E.0246
;WIDTH:0.778816
G1 X118.864 Y108.771 E.01018
;WIDTH:0.815915
G1 X118.811 Y108.613 E.01071
;WIDTH:0.827479
G1 X118.759 Y108.168 E.02923
G1 X118.792 Y107.975 E.01277
;WIDTH:0.783109
M73 P4 R21
G1 X118.826 Y107.782 E.01206
;WIDTH:0.738739
G1 X118.86 Y107.589 E.01134
;WIDTH:0.694369
G1 X118.894 Y107.396 E.01062
;WIDTH:0.649999
G1 X119.098 Y106.659 E.0386
G1 X119.451 Y105.982 E.03854
G1 X119.692 Y105.667 E.02002
G1 X120.166 Y105.193 E.03384
